assets/img/create-an-account/password/create-account-password.svg

<?xml version="1.0" encoding="UTF-8"?>
<svg width="170px" height="106px" viewBox="0 0 170 106" version="1.1" xmlns="http://www.w3.org/2000/svg" xmlns:xlink="http://www.w3.org/1999/xlink">
    <title>Group 8</title>
    <defs>
        <linearGradient x1="50%" y1="50%" x2="50%" y2="430.015346%" id="linearGradient-1">
            <stop stop-color="#EBF3FA" offset="0%"></stop>
            <stop stop-color="#0071BB" offset="100%"></stop>
        </linearGradient>
    </defs>
    <g id="hi-fi-[for-screenshots]" stroke="none" stroke-width="1" fill="none" fill-rule="evenodd">
        <g id="create-page-desktop-1440-v1" transform="translate(-186.000000, -1036.000000)">
            <g id="Group-8" transform="translate(186.000000, 1036.000000)">
                <g id="Group-4" transform="translate(31.875000, 0.000000)">
                    <ellipse id="Oval" fill="#F9FCFF" cx="53.125" cy="53" rx="52.0296392" ry="51.9072165"></ellipse>
                    <path d="M53.125,0 C23.7848727,0 0,23.7289083 0,53 C0,82.2710917 23.7848727,106 53.125,106 C82.4651273,106 106.25,82.2710917 106.25,53 C106.25,23.7289083 82.4651273,0 53.125,0 Z M52.5773196,4.37113402 C79.8001181,4.37113402 101.868557,26.3876468 101.868557,53.5463918 C101.868557,80.7051367 79.8001181,102.721649 52.5773196,102.721649 C25.354521,102.721649 3.28608247,80.7051367 3.28608247,53.5463918 C3.28608247,26.3876468 25.354521,4.37113402 52.5773196,4.37113402 Z" id="Oval" fill="url(#linearGradient-1)" fill-rule="nonzero" transform="translate(53.125000, 53.000000) scale(-1, 1) translate(-53.125000, -53.000000) "></path>
                </g>
                <g id="Group-2" transform="translate(0.000000, 31.800000)">
                    <rect id="Rectangle" fill="#EBF3FA" x="0" y="0" width="170" height="29.68" rx="13.5"></rect>
                    <path d="M13.771838,20.0648227 L15.9256164,16.3804745 L18.066498,19.9987949 L20.0913077,18.5461845 L17.4861386,15.3504416 L21.1746454,14.2543811 L20.478214,12.0094377 L16.8283978,13.6469258 L17.1766135,9.54 L14.71331,9.54 L14.9970413,13.6337202 L11.4246064,12.0358488 L10.625,14.2807922 L14.4166818,15.3636472 L11.7470283,18.6254178 L13.771838,20.0648227 Z M26.4314125,20.0648227 L28.5851909,16.3804745 L30.7260725,19.9987949 L32.7508822,18.5461845 L30.145713,15.3504416 L33.8342199,14.2543811 L33.1377885,12.0094377 L29.4879723,13.6469258 L29.836188,9.54 L27.3728845,9.54 L27.6566158,13.6337202 L24.0841808,12.0358488 L23.2845745,14.2807922 L27.0762563,15.3636472 L24.4066028,18.6254178 L26.4314125,20.0648227 Z M39.0909869,20.0648227 L41.2447654,16.3804745 L43.385647,19.9987949 L45.4104567,18.5461845 L42.8052875,15.3504416 L46.4937943,14.2543811 L45.797363,12.0094377 L42.1475468,13.6469258 L42.4957625,9.54 L40.0324589,9.54 L40.3161902,13.6337202 L36.7437553,12.0358488 L35.9441489,14.2807922 L39.7358308,15.3636472 L37.0661772,18.6254178 L39.0909869,20.0648227 Z M51.7505614,20.0648227 L53.9043399,16.3804745 L56.0452214,19.9987949 L58.0700311,18.5461845 L55.464862,15.3504416 L59.1533688,14.2543811 L58.4569374,12.0094377 L54.8071212,13.6469258 L55.1553369,9.54 L52.6920334,9.54 L52.9757647,13.6337202 L49.4033298,12.0358488 L48.6037234,14.2807922 L52.3954052,15.3636472 L49.7257517,18.6254178 L51.7505614,20.0648227 Z M64.4101359,20.0648227 L66.5639143,16.3804745 L68.7047959,19.9987949 L70.7296056,18.5461845 L68.1244364,15.3504416 L71.8129433,14.2543811 L71.1165119,12.0094377 L67.4666957,13.6469258 L67.8149114,9.54 L65.3516079,9.54 L65.6353392,13.6337202 L62.0629042,12.0358488 L61.2632979,14.2807922 L65.0549797,15.3636472 L62.3853262,18.6254178 L64.4101359,20.0648227 Z M77.0697103,20.0648227 L79.2234888,16.3804745 L81.3643704,19.9987949 L83.3891801,18.5461845 L80.7840109,15.3504416 L84.4725177,14.2543811 L83.7760864,12.0094377 L80.1262702,13.6469258 L80.4744859,9.54 L78.0111824,9.54 L78.2949136,13.6337202 L74.7224787,12.0358488 L73.9228723,14.2807922 L77.7145542,15.3636472 L75.0449006,18.6254178 L77.0697103,20.0648227 Z M88.6743203,20.0648227 L90.8280987,16.3804745 L92.9689803,19.9987949 L94.99379,18.5461845 L92.3886208,15.3504416 L96.0771277,14.2543811 L95.3806963,12.0094377 L91.7308801,13.6469258 L92.0790958,9.54 L89.6157923,9.54 L89.8995236,13.6337202 L86.3270886,12.0358488 L85.5274823,14.2807922 L89.3191641,15.3636472 L86.6495106,18.6254178 L88.6743203,20.0648227 Z M101.333895,20.0648227 L103.487673,16.3804745 L105.628555,19.9987949 L107.653364,18.5461845 L105.048195,15.3504416 L108.736702,14.2543811 L108.040271,12.0094377 L104.390455,13.6469258 L104.73867,9.54 L102.275367,9.54 L102.559098,13.6337202 L98.9866631,12.0358488 L98.1870567,14.2807922 L101.978739,15.3636472 L99.309085,18.6254178 L101.333895,20.0648227 Z M113.993469,20.0648227 L116.147248,16.3804745 L118.288129,19.9987949 L120.312939,18.5461845 L117.70777,15.3504416 L121.396277,14.2543811 L120.699845,12.0094377 L117.050029,13.6469258 L117.398245,9.54 L114.934941,9.54 L115.218673,13.6337202 L111.646238,12.0358488 L110.846631,14.2807922 L114.638313,15.3636472 L111.96866,18.6254178 L113.993469,20.0648227 Z M126.653044,20.0648227 L128.806822,16.3804745 L130.947704,19.9987949 L132.972513,18.5461845 L130.367344,15.3504416 L134.055851,14.2543811 L133.35942,12.0094377 L129.709604,13.6469258 L130.057819,9.54 L127.594516,9.54 L127.878247,13.6337202 L124.305812,12.0358488 L123.506206,14.2807922 L127.297888,15.3636472 L124.628234,18.6254178 L126.653044,20.0648227 Z M139.312618,20.0648227 L141.466397,16.3804745 L143.607278,19.9987949 L145.632088,18.5461845 L143.026919,15.3504416 L146.715426,14.2543811 L146.018994,12.0094377 L142.369178,13.6469258 L142.717394,9.54 L140.25409,9.54 L140.537821,13.6337202 L136.965387,12.0358488 L136.16578,14.2807922 L139.957462,15.3636472 L137.287808,18.6254178 L139.312618,20.0648227 Z M151.972193,20.0648227 L154.125971,16.3804745 L156.266853,19.9987949 L158.291662,18.5461845 L155.686493,15.3504416 L159.375,14.2543811 L158.678569,12.0094377 L155.028752,13.6469258 L155.376968,9.54 L152.913665,9.54 L153.197396,13.6337202 L149.624961,12.0358488 L148.825355,14.2807922 L152.617036,15.3636472 L149.947383,18.6254178 L151.972193,20.0648227 Z" id="************" fill="#112E51" fill-rule="nonzero"></path>
                    <rect id="Rectangle" fill="#A6D5AF" x="49.9375" y="34.98" width="31.875" height="7.42" rx="2"></rect>
                    <rect id="Rectangle" fill="#A6D5AF" x="11.6875" y="34.98" width="31.875" height="7.42" rx="2"></rect>
                    <rect id="Rectangle" fill="#A6D5AF" x="88.1875" y="34.98" width="31.875" height="7.42" rx="2"></rect>
                    <rect id="Rectangle" fill="#A6D5AF" x="126.4375" y="34.98" width="31.875" height="7.42" rx="2"></rect>
                </g>
                <ellipse id="Oval" fill="#FCF197" cx="132.28125" cy="32.33" rx="5.84375" ry="5.83"></ellipse>
            </g>
        </g>
    </g>
</svg>

<svg width="170" height="106" xmlns="http://www.w3.org/2000/svg"><defs><linearGradient x1="50%" y1="50%" x2="50%" y2="430.015%" id="a"><stop stop-color="#EBF3FA" offset="0%"/><stop stop-color="#0071BB" offset="100%"/></linearGradient></defs><g fill="none" fill-rule="evenodd"><g transform="translate(31.875)"><ellipse fill="#F9FCFF" cx="53.125" cy="53" rx="52.03" ry="51.907"/><path d="M53.125 0C23.785 0 0 23.729 0 53s23.785 53 53.125 53 53.125-23.729 53.125-53S82.465 0 53.125 0zm-.548 4.371c27.223 0 49.292 22.017 49.292 49.175 0 27.16-22.069 49.176-49.292 49.176-27.222 0-49.29-22.017-49.29-49.176 0-27.158 22.068-49.175 49.29-49.175z" fill="url(#a)" fill-rule="nonzero" transform="matrix(-1 0 0 1 106.25 0)"/></g><g transform="translate(0 31.8)"><rect fill="#EBF3FA" width="170" height="29.68" rx="13.5"/><path d="M13.772 20.065l2.154-3.685 2.14 3.62 2.025-1.453-2.605-3.196 3.689-1.096-.697-2.245-3.65 1.638.349-4.107h-2.464l.284 4.094-3.572-1.598-.8 2.245 3.792 1.083-2.67 3.261 2.025 1.44zm12.66 0l2.153-3.685L30.726 20l2.025-1.453-2.605-3.196 3.688-1.096-.696-2.245-3.65 1.638.348-4.107h-2.463l.284 4.094-3.573-1.598-.8 2.245 3.792 1.083-2.67 3.261 2.025 1.44zm12.659 0l2.154-3.685 2.14 3.62 2.025-1.453-2.605-3.196 3.689-1.096-.697-2.245-3.65 1.638.349-4.107h-2.464l.284 4.094-3.572-1.598-.8 2.245 3.792 1.083-2.67 3.261 2.025 1.44zm12.66 0l2.153-3.685L56.045 20l2.025-1.453-2.605-3.196 3.688-1.096-.696-2.245-3.65 1.638.348-4.107h-2.463l.284 4.094-3.573-1.598-.8 2.245 3.792 1.083-2.67 3.261 2.026 1.44zm12.66 0l2.153-3.685 2.14 3.62 2.026-1.453-2.606-3.196 3.689-1.096-.696-2.245-3.65 1.638.348-4.107h-2.463l.283 4.094-3.572-1.598-.8 2.245 3.792 1.083-2.67 3.261 2.025 1.44zm12.659 0l2.153-3.685L81.364 20l2.025-1.453-2.605-3.196 3.689-1.096-.697-2.245-3.65 1.638.348-4.107h-2.463l.284 4.094-3.573-1.598-.8 2.245 3.793 1.083-2.67 3.261 2.025 1.44zm11.604 0l2.154-3.685L92.97 20l2.025-1.453-2.605-3.196 3.688-1.096-.696-2.245-3.65 1.638.348-4.107h-2.463l.284 4.094-3.573-1.598-.8 2.245 3.792 1.083-2.67 3.261 2.025 1.44zm12.66 0l2.154-3.685 2.14 3.619 2.025-1.453-2.605-3.196 3.689-1.096-.697-2.245-3.65 1.638.349-4.107h-2.464l.284 4.094-3.572-1.598-.8 2.245 3.792 1.083-2.67 3.261 2.025 1.44zm12.66 0l2.153-3.685 2.141 3.62 2.025-1.453-2.605-3.196 3.688-1.096-.696-2.245-3.65 1.638.348-4.107h-2.463l.284 4.094-3.573-1.598-.8 2.245 3.792 1.083-2.67 3.261 2.025 1.44zm12.659 0l2.154-3.685 2.14 3.619 2.026-1.453-2.606-3.196 3.689-1.096-.697-2.245-3.65 1.638.349-4.107h-2.463l.283 4.094-3.572-1.598-.8 2.245 3.792 1.083-2.67 3.261 2.025 1.44zm12.66 0l2.153-3.685 2.141 3.62 2.025-1.453-2.605-3.196 3.688-1.096-.696-2.245-3.65 1.638.348-4.107h-2.463l.284 4.094-3.573-1.598-.8 2.245 3.792 1.083-2.67 3.261 2.026 1.44zm12.66 0l2.153-3.685 2.14 3.619 2.026-1.453-2.606-3.196 3.689-1.096-.696-2.245-3.65 1.638.348-4.107h-2.463l.283 4.094-3.572-1.598-.8 2.245 3.792 1.083-2.67 3.261 2.025 1.44z" fill="#112E51" fill-rule="nonzero"/><rect fill="#A6D5AF" x="49.938" y="34.98" width="31.875" height="7.42" rx="2"/><rect fill="#A6D5AF" x="11.688" y="34.98" width="31.875" height="7.42" rx="2"/><rect fill="#A6D5AF" x="88.188" y="34.98" width="31.875" height="7.42" rx="2"/><rect fill="#A6D5AF" x="126.438" y="34.98" width="31.875" height="7.42" rx="2"/></g><ellipse fill="#FCF197" cx="132.281" cy="32.33" rx="5.844" ry="5.83"/></g></svg>
